X:1
T:Mon pouvre cueur 3v
T:Tielman Susato
T:Source : Le premier Livre des Chansons à 3 parties---Anvers---T.Susato---1544. Editor : André Vierendeels (05/02/15).
T:Notes : Original clefs : C1, C3, F4 Original note values have been halved Editorial accidentals above the staff Notice: "Chantez a deux si bon vous samble, puis chanterez tous trois ensamble" Square bracket indicates ligature
T:Mon pouvre cueur 3v
C:Tielman Susato
%%score [ 1 2 3 ]
L:1/8
Q:1/4=90
M:2/2
K:C
V:1 treble nm="Superius" snm="S"
V:2 treble-8 nm="Tenor" snm="T"
V:3 bass nm="Bassus" snm="B"
V:1
 z4 c4 | c2 c2 B2 G2 | A2 B2 c3 B/A/ | G4 z2 G2 | G2 G2 F2 D2 | E2 F2 G2 FE | D2 D2 E2 G2- | %7
w: Mon|po- vre cueur plain|de dou- leur, _ _|_ mon|po- vre cueur plain|de dou- leur, _ _|_ à vous ces-|
 G2 F2 E2 DC | D2 D2 C2 G2 | A2 c2 B2 A2- | AGFE D2 A2- | AG G4 F2 | G8- | G8 | z2 c2 c2 c2 | %15
w: toit du tout _ _|_ don- né, à|vous ces- toit tout|_ _ _ _ _ _|* * * don-|né,|_|mais pour ung|
 B2 G2 A2 B2 | c3 B A4 | G4 z2 G2 | A2 c2 B2 A2 | G2 A3 GFE | D2 A3 G G2- |"^#" G2 F2 G4 | %22
w: aul- tre'ou pour _|_ _ plu-|sieurs, ain-|si la- vez ha-|ban- don- * * *||* * né,|
 z2 c2 c2 c2 | A4 G2 A2- | A2 G2 F2 ED | E2 G2 G2 G2 | A2 GF G2 A2- | AGGF/E/ F4 | E4 z2 E2 | %29
w: vo- stre cou-|rai- ge est|_ si vol- lai _|ge, qu'il n'y a|rei- * * gle ni|_ _ _ _ _ com-|pas, tel|
 G2 G2 D2 D2 | F2 F2 C3 D | EDEF G2 CD | EFGA Bc d2- | dc c4 B2 | c4 z2 A2 | c2 c2 G3 A | %36
w: chan- ge qui ne|gain- gne pas, _|_ _ _ _ _ _ _|||* tel|chan- ge qui ne|
 B2 B2 A2 z E | G2 G2 D2 D2 | F2 F2 C3 D | EDEF G2 CD | EFGA Bc d2- | dc c4 B2 | c8 |] %43
w: gain- gne pas, tel|chan- ge qui ne|gain- gne pas, _|_ _ _ _ _ qui _|ne _ _ _ _ _ gain-|* * * gne|pas.|
V:2
 f4 f2 f2 | e2 c2 d2 e2 | f2 ed c4 | z2 c2 c2 c2 | B2 G2 A2 B2 | c2 BA G2 G2 | B2 d2 c2 B2 | %7
w: po- vre cueur|plain de dou- leur,|mon _ _ _|po- vre cueur|plain de dou- leur,|à _ _ _ vous|ces- toit du tout|
 A2 d3 c c2- | c2 B2 c4 | z2 c2 d2 f2- | fe d4 c2 | B2 AG A4 | G4 z2 c2 | c2 c2 B2 G2 | A3 B cdef | %15
w: don- né, * *|* * à|vous ces- toit|* * du tout|don- _ _ né,|mais pour|ung aul- tre'ou pour|plu- _ _ _ _ _|
 g3 e f2 e2 | z2 f2 f2 f2 | e2 c2 d2 e2 | f2 c2 d2 f2 | e2 d2 c2 d2- | dcAB c2 B2 | A4 G2 c2 | %22
w: _ _ sieurs, mais|pour ung aul-|tre'ou pour plu- sieurs,|ain- si l'a- vez|ha- ban- don- né,||* vo- stre|
 c2 c2 A3 B | c2 d2 e2 AB | cdec d2 d2 | c2 c2 c2 B2 | ABcd e2 f2- | fe e4 d2 | e2 z A c2 c2 | %29
w: cou- rai- g'est *|* si vol- lai- *|* * * * * ge|qu'il n'y a rei-|gle * * * ni com-|_ _ _ pas,|tel chan- ge qui|
 G3 A _B2 B2 | F3 G AGAB | cBcd ef g2 | cdef g4 | f2 e2 d2 e2- | ed c2 d2 f2 | f2 c3 d e2 | %36
w: ne gain- gne pas,|tel _ _ _ _ _|_ _ _ _ _ _ _|||* * * chan- ge|qui ne gain- gne|
 e2 d2 z A c2 | c2 G3 A _B2 | _B2 F3 GA=B | cBcd edef | g2 c2 g2 g2 | f2 e2 d2 d2 | c8 |] %43
w: pas, tel chan- ge|qui ne gain- gne|pas, tel _ _ _|_ _ _ _ _ _ _ _|* chan- ge qui|ne gain- gne pas.||
V:3
 F,4 F,2 F,2 | C2 A,2 G,2 G,2 | F,2 G,2 A,3 G,/F,/ | E,2 C,2 C,2 C,2 | G,2 E,2 F,2 G,2 | %5
w: Mon pou- vre|cueur plain de dou-|leur, mon po- * *|* vre cueur plein|de _ dou- *|
 C,2 D,2 E,2 G,2- | G,2 F,2 E,2 E,2 | D,4 A,4 | G,2 G,2 A,2 C2- | CB, A,2 G,2 F,2 | D,4 F,4 | %11
w: leur, à vous ces-|* toit du tout|don- *|né, à vous ces-|* * * toit du|tout don-|
 G,2 E,2 D,4 | E,4 z2 C,2 | C,2 C,2 G,2 E,2 | F,3 G, A,2 A,2 | G,4 z4 | z2 F,2 F,2 F,2 | %17
w: |né, mais|pour ung aul- tre'ou|pour _ _ plu-|sieurs,|mais pour ung|
 C2 C2 B,2 C2 | F,2 A,2 G,2 F,2 | E,2 F,3 E, D,2 | G,2 F,4 G,2 | D,4 E,2 C,2 | C,2 C,2 F,3 G, | %23
w: aul- tre'ou pour plu-|sieurs, ain- si l'a-|vez ha- * *|ban- don- *|* né, vo-|stre cou- rai- *|
 A,2 G,F, E,2 F,2- | F,2 E,2 F,2 G,2 | C,2 C,2 C,2 G,2 | F,4 E,2 D,2- | D,E, C,2 D,4 | A,,8 | %29
w: * g'est _ _ si|_ vo- lai- ge|qu'il n'y a rei-|* gle ni|_ _ _ com-|pas,|
 z2 E,2 G,2 G,2 | D,3 E, F,2 F,2 | C,4 C4 | C2 C2 G,3 A, | _B,2 C2 G,4 | C,4 z2 F,2 | %35
w: tel chan- ge|qui ne gain- gne|pas, tel|chan- ge qui ne|gain- * gne|pas, tel|
 F,G,A,B, C2 C2 | G,2 G,2 A,2 A,2 | E,2 z E, G,2 G,2 | D,3 E, F,2 F,2 | C,4 C4 | C2 C2 G,3 A, | %41
w: chan- * * * * ge|qui ne gain- gne|pas, tel chan- ge|qui ne gain- gne|pas, tel|chan- ge qui ne|
 _B,2 C2 G,4 | C,8 |] %43
w: gain- * gne|pas.|

